!!!OTL: 670. Das Leben ein Traum. / [Aelteres Lied.]
!!!ODT: 1834
!!!ARE: Europa, Mitteleuropa, Deutschland, Koeln; Meurs
!!!SCT: B0670
!!!TXL: @@DE
!!!YEM: Copyright 1995, estate of Helmut Schaffrath.
**kern	**text
*ICvox	*
*Ivox	*
*clefG2	*
*M4/4	*
*met(c)	*
*k[f#c#]	*
*D:	*
!LO:TX:a:t=Langſam.	!
{8a	Am
8a	Ro-
8g	-ſen-
=1	=1
4.f#	-hü-
8f#	-gel
8e	hob
8f#	ich
8g	mich
8e	em-
=2	=2
2d	-por,
8r}	.
{8d	wo
8e	ich
8f#	in
=3	=3
4.a	ſü-
8g	-ßen
8f#	Träumen
8f#	.
8b	mich
8a	ver-
=4	=4
2e	-lor
8r}	.
{8a	doch
8b	ach!
8cc#	verſchwunden
=5	=5
4.dd	.
8a	.
8ee	iſt
8ee	der
8cc#	Wellen
8a	.
=6	=6
(8aL	Schaum,
8ff#J)	.
4dd	.
4r}	.
{4d	das
=7	=7
4.d	Le-
8f#	-ben
8b	iſt
8a	ja
8e	nur
8f#	ein
=8	=8
2d	Traum.
8r}	.
==	==
!!!AGN: Moral - Lied
!!!GTL: Didaktische Lieder: Betrachtungen, Vergleiche und Moralisationen
!!!ONB: ESAC (Essen Associative Code) Database: BOEHME
!!!AMT: simple quadruple
!!!AIN: vox
!!!EED: Helmut Schaffrath
!!!EEV: 1.0
!!Text und Mel. 1834, gehört von einem Cölner in Meurs. Auch in Dr. Arnolds Pfennigmagaʒin. Cöln 1838.
!!@@COMMENT:"Verfaſſer des Gedichtes unbekannt. Dieſer Kölner Text wurde 1843 auch in Barmen geſungen.
!!Etwas anders ſteht der Tert auf einem fl. Bl. um 1830-40 "Neuer Liederkranʒ". Berlin,
!!Trowitſch und Sohn. Wieder eine ſehr abweichende Lesart fand ich im Elſaß, daher die 2. Melodie."
!!@@END:
!!!URL-scan: https://archive.org/details/BoehmeVtLieder1895/page/n521/mode/2up
!!!ENC: Anna Maria Matuszewska
!!!EEV: 2024/16/07
*-	*-
